brandFactory_export/1.Light/Abierto _1Light.svg

<?xml version="1.0" encoding="UTF-8"?>
<svg width="24px" height="24px" viewBox="0 0 24 24" version="1.1" xmlns="http://www.w3.org/2000/svg" xmlns:xlink="http://www.w3.org/1999/xlink">
    <title>1.Light/Abierto _1Light</title>
    <g id="Symbols" stroke="none" stroke-width="1" fill="none" fill-rule="evenodd">
        <g id="1.Light/Abierto-_1Light" fill="#5CB615" fill-rule="nonzero">
            <path d="M22.1512605,22.1445378 C22.4672269,21.8252101 22.6420168,21.405042 22.6420168,20.9546218 L22.6184874,13.794958 C22.6487395,13.2302521 22.5109244,12.7865546 22.2218487,12.4773109 C21.9294118,12.1647059 21.4957983,12 20.9647059,11.9966387 L2.66218487,12 C2.21512605,12 1.79159664,12.1747899 1.47563025,12.4941176 C1.15630252,12.8134454 0.98487395,13.2336134 0.98487395,13.6840336 L1.00840336,20.8436975 C0.978151261,21.4084034 1.11596639,21.8521008 1.40504202,22.1613445 C1.69747899,22.4705882 2.13445378,22.6386555 2.66554622,22.6420168 L20.9680672,22.6352941 C21.4117647,22.6352941 21.8319328,22.4605042 22.1512605,22.1445378 L22.1512605,22.1445378 Z M11.8117647,0.981512605 C11.1966387,1.01512605 10.7226891,1.5394958 10.7563025,2.15462185 C10.7865546,2.72605042 11.2403361,3.18319328 11.8117647,3.21008403 C12.4268908,3.17983193 12.9008403,2.65546218 12.8672269,2.04033613 C12.8403361,1.46890756 12.3831933,1.01176471 11.8117647,0.981512605 Z M11.8117647,4.19159664 C11.4117647,4.19159664 11.0420168,4.07394958 10.7226891,3.87563025 L3.58991597,11.0151261 L20.0537815,11.0117647 L12.9008403,3.8789916 C12.5815126,4.07394958 12.2117647,4.19159664 11.8117647,4.19159664 Z M23.6,13.8184874 L23.6235594,20.9512605 C23.6268908,21.6571429 23.3478992,22.3361345 22.8470588,22.8369748 C22.3495798,23.3378151 21.6705882,23.6201681 20.9647059,23.6201681 L2.65546218,23.6235294 C1.85882353,23.6168067 1.15966387,23.3344538 0.685714286,22.8302521 C0.208403361,22.3226891 -0.0201680672,21.6268908 0.0235294118,20.8168067 L-3.00247772e-05,13.6840336 C-0.00336134454,12.9781513 0.275630252,12.2991597 0.776470588,11.7983193 C1.15294118,11.4184874 1.64033613,11.1630252 2.16470588,11.0655462 C2.17478992,11.0521008 2.17815126,11.0352941 2.19159664,11.0252101 L10.0302521,3.18319328 C9.82857143,2.85714286 9.71764706,2.48067227 9.71764706,2.09747899 C9.71764706,0.941176471 10.6554622,0 11.8117647,0 C12.9647059,0 13.9058824,0.941176471 13.9058824,2.09747899 C13.9058824,2.49747899 13.7882353,2.86722689 13.589916,3.18319328 L21.4823529,11.0521008 C21.4857143,11.0554622 21.4857143,11.0588235 21.4890756,11.0621849 C22.0672269,11.1596639 22.5680672,11.4151261 22.9344538,11.805042 C23.4151261,12.312605 23.6436975,13.0084034 23.6,13.8184874 Z M5.80840336,18.487395 C6.07731092,18.487395 6.58151261,18.487395 6.58151261,17.1226891 C6.58151261,15.7478992 6.08067227,15.7478992 5.80840336,15.7478992 C5.53613445,15.7478992 5.03193277,15.7478992 5.03193277,17.1226891 C5.03193277,18.487395 5.53613445,18.487395 5.80840336,18.487395 Z M5.80840336,14.8504202 C6.43697479,14.8504202 7.48571429,15.1462185 7.48571429,17.1226891 C7.48571429,18.9983193 6.57478992,19.3882353 5.80840336,19.3882353 C5.04201681,19.3882353 4.12436975,18.994958 4.12436975,17.1226891 C4.12436975,15.1462185 5.17647059,14.8504202 5.80840336,14.8504202 L5.80840336,14.8504202 Z M10.2084034,16.8773109 C10.2756303,16.8 10.3159664,16.692437 10.3159664,16.4033613 C10.3159664,16.1781513 10.2722689,15.9966387 10.1915966,15.9058824 C10.1647059,15.8756303 10.0672269,15.8016807 9.75798319,15.8016807 L9.2907563,15.8016807 L9.2907563,16.9815126 L9.82521008,16.9815126 C10.1176471,16.9781513 10.1647059,16.9277311 10.2084034,16.8773109 L10.2084034,16.8773109 Z M9.78151261,14.9210084 C10.2722689,14.9210084 10.6218487,15.0420168 10.8571429,15.2941176 C11.102521,15.5495798 11.2235294,15.9193277 11.2235294,16.389916 C11.2235294,16.8571429 11.112605,17.2067227 10.8840336,17.4621849 C10.6554622,17.7277311 10.3294118,17.8588235 9.89243697,17.8588235 L9.2907563,17.8588235 L9.2907563,18.9478992 C9.2907563,19.1495798 9.12605042,19.3176471 8.9210084,19.3176471 L8.75966387,19.3176471 C8.55798319,19.3176471 8.38991597,19.1529412 8.38991597,18.9478992 L8.38991597,15.287395 C8.38991597,15.0857143 8.55462185,14.9176471 8.75966387,14.9176471 C8.76638655,14.9210084 9.78151261,14.9210084 9.78151261,14.9210084 L9.78151261,14.9210084 Z M14.2487395,18.4336134 C14.4504202,18.4336134 14.6184874,18.5983193 14.6184874,18.8033613 L14.6184874,18.9478992 C14.6184874,19.1495798 14.4537815,19.3176471 14.2487395,19.3176471 L12.4470588,19.3176471 C12.2453782,19.3176471 12.0773109,19.1529412 12.0773109,18.9478992 L12.0773109,15.287395 C12.0773109,15.0857143 12.2420168,14.9176471 12.4470588,14.9176471 L14.194958,14.9176471 C14.3966387,14.9176471 14.5647059,15.0823529 14.5647059,15.2840336 C14.5647059,15.3109244 14.5613445,15.3378151 14.5546218,15.3647059 L14.5210084,15.5092437 C14.4840336,15.6773109 14.3327731,15.7983193 14.1613445,15.7983193 L12.9747899,15.7983193 L12.9747899,16.6453782 L13.9058824,16.6453782 C14.107563,16.6453782 14.2756303,16.810084 14.2756303,17.0151261 L14.2756303,17.1596639 C14.2756303,17.3613445 14.1109244,17.5294118 13.9058824,17.5294118 L12.9747899,17.5294118 L12.9747899,18.4336134 L14.2487395,18.4336134 Z M18.3394958,14.9210084 C18.5445378,14.9210084 18.7092437,15.0857143 18.7092437,15.2907563 L18.7092437,18.9512605 C18.7092437,19.1529412 18.5445378,19.3210084 18.3394958,19.3210084 L18.2184874,19.3210084 C18.0941176,19.3210084 17.9798319,19.2605042 17.912605,19.1563025 L16.3865546,16.8403361 L16.3865546,18.9546218 C16.3865546,19.1563025 16.2218487,19.3243697 16.0168067,19.3243697 L15.8655462,19.3243697 C15.6638655,19.3243697 15.4957983,19.1596639 15.4957983,18.9546218 L15.4957983,15.287395 C15.4957983,15.0857143 15.6605042,14.9176471 15.8655462,14.9176471 L15.9831933,14.9176471 C16.107563,14.9176471 16.2218487,14.9781513 16.2890756,15.0823529 L17.8252101,17.3983193 L17.8252101,15.2840336 C17.8252101,15.0823529 17.989916,14.9142857 18.194958,14.9142857 C18.1915966,14.9210084 18.3394958,14.9210084 18.3394958,14.9210084 L18.3394958,14.9210084 Z" id="Abierto-_1Light"></path>
        </g>
    </g>
</svg>

<svg width="24" height="24" viewBox="0 0 24 24" xmlns="http://www.w3.org/2000/svg"><path d="M22.151 22.145c.316-.32.491-.74.491-1.19l-.024-7.16c.03-.565-.107-1.008-.396-1.318-.293-.312-.726-.477-1.257-.48L2.662 12c-.447 0-.87.175-1.186.494-.32.32-.491.74-.491 1.19l.023 7.16c-.03.564.108 1.008.397 1.317.292.31.73.478 1.26.481l18.303-.007c.444 0 .864-.174 1.183-.49zM11.811.982a1.116 1.116 0 000 2.228 1.111 1.111 0 001.056-1.17A1.114 1.114 0 0011.812.982zm0 3.21c-.4 0-.769-.118-1.088-.316l-7.133 7.14 16.464-.004L12.9 3.879a2.08 2.08 0 01-1.09.313zM23.6 13.818l.024 7.133a2.65 2.65 0 01-.777 1.886c-.497.5-1.176.783-1.882.783l-18.31.004c-.796-.007-1.495-.29-1.97-.794-.477-.507-.705-1.203-.661-2.013L0 13.684a2.65 2.65 0 012.165-2.618c.01-.014.013-.03.027-.04l7.838-7.843a2.07 2.07 0 01-.312-1.086C9.718.941 10.655 0 11.812 0a2.1 2.1 0 012.094 2.097c0 .4-.118.77-.316 1.086l7.892 7.87c.004.002.004.006.007.01.578.097 1.08.352 1.445.742.481.508.71 1.203.666 2.013zm-17.792 4.67c.27 0 .774 0 .774-1.365 0-1.375-.501-1.375-.774-1.375-.272 0-.776 0-.776 1.375 0 1.364.504 1.364.776 1.364zm0-3.638c.629 0 1.678.296 1.678 2.273 0 1.875-.911 2.265-1.678 2.265-.766 0-1.684-.393-1.684-2.265 0-1.977 1.052-2.273 1.684-2.273zm4.4 2.027c.068-.077.108-.185.108-.474 0-.225-.044-.406-.124-.497-.027-.03-.125-.104-.434-.104h-.467v1.18h.534c.293-.004.34-.054.383-.105zm-.426-1.956c.49 0 .84.121 1.075.373.246.256.367.625.367 1.096 0 .467-.111.817-.34 1.072-.229.266-.555.397-.992.397h-.601v1.089a.37.37 0 01-.37.37H8.76a.37.37 0 01-.37-.37v-3.66a.37.37 0 01.37-.37c.006.003 1.022.003 1.022.003zm4.467 3.513a.37.37 0 01.37.37v.144a.37.37 0 01-.37.37h-1.802a.37.37 0 01-.37-.37v-3.66a.37.37 0 01.37-.37h1.748a.37.37 0 01.37.366.332.332 0 01-.01.08l-.034.145a.37.37 0 01-.36.29h-1.186v.846h.93a.37.37 0 01.37.37v.145a.37.37 0 01-.37.37h-.93v.904h1.274zm4.09-3.513c.206 0 .37.165.37.37v3.66a.37.37 0 01-.37.37h-.12a.36.36 0 01-.306-.165l-1.526-2.316v2.115a.37.37 0 01-.37.37h-.151a.37.37 0 01-.37-.37v-3.668a.37.37 0 01.37-.37h.117a.36.36 0 01.306.165l1.536 2.316v-2.114a.37.37 0 01.37-.37c-.003.007.144.007.144.007z" fill="#5CB615" fill-rule="nonzero"/></svg>
